svg/table_row_plus_before.svg

<svg xmlns="http://www.w3.org/2000/svg" viewBox="0 0 24 24"><path d="M22 14a2 2 0 0 0-2-2H4a2 2 0 0 0-2 2v7h2v-2h4v2h2v-2h4v2h2v-2h4v2h2zM4 14h4v3H4zm6 0h4v3h-4zm10 0v3h-4v-3zm-9-4h2V7h3V5h-3V2h-2v3H8v2h3z"/></svg>

<?xml version="1.0" encoding="UTF-8"?><!DOCTYPE svg PUBLIC "-//W3C//DTD SVG 1.1//EN" "http://www.w3.org/Graphics/SVG/1.1/DTD/svg11.dtd"><svg xmlns="http://www.w3.org/2000/svg" xmlns:xlink="http://www.w3.org/1999/xlink" version="1.1" id="mdi-table-row-plus-before" width="24" height="24" viewBox="0 0 24 24"><path d="M22,14A2,2 0 0,0 20,12H4A2,2 0 0,0 2,14V21H4V19H8V21H10V19H14V21H16V19H20V21H22V14M4,14H8V17H4V14M10,14H14V17H10V14M20,14V17H16V14H20M11,10H13V7H16V5H13V2H11V5H8V7H11V10Z" /></svg>
